icons/infinity-24.svg

<svg xmlns="http://www.w3.org/2000/svg" width="24" height="24" viewBox="0 0 24 24"><path d="M12 11.16c.887-.933 1.813-1.865 2.78-2.6C15.952 7.668 17.267 7 18.75 7 21.657 7 24 9.615 24 12.25s-2.343 5.25-5.25 5.25c-1.483 0-2.798-.668-3.97-1.56-.967-.735-1.893-1.667-2.78-2.6-.887.933-1.813 1.865-2.78 2.6-1.172.892-2.487 1.56-3.97 1.56C2.343 17.5 0 14.885 0 12.25S2.343 7 5.25 7c1.483 0 2.798.667 3.97 1.56.967.735 1.893 1.667 2.78 2.6zM5.25 8.5c-2.032 0-3.75 1.895-3.75 3.75S3.218 16 5.25 16c1.017 0 2.014-.457 3.062-1.253.89-.678 1.758-1.554 2.655-2.497-.897-.943-1.765-1.82-2.655-2.497C7.264 8.957 6.267 8.5 5.25 8.5zm7.783 3.75c.897.943 1.765 1.82 2.655 2.497C16.736 15.543 17.733 16 18.75 16c2.032 0 3.75-1.895 3.75-3.75S20.782 8.5 18.75 8.5c-1.017 0-2.014.457-3.062 1.253-.89.678-1.758 1.554-2.655 2.497z"/></svg>

<svg xmlns="http://www.w3.org/2000/svg" width="24" height="24" viewBox="0 0 24 24">
  <defs/>
  <path d="M12,11.16 C12.887,10.227 13.813,9.295 14.78,8.56 C15.952,7.668 17.267,7 18.75,7 C21.657,7 24,9.615 24,12.25 C24,14.885 21.657,17.5 18.75,17.5 C17.267,17.5 15.952,16.832 14.78,15.94 C13.813,15.205 12.887,14.273 12,13.34 C11.113,14.273 10.187,15.205 9.22,15.94 C8.048,16.832 6.733,17.5 5.25,17.5 C2.343,17.5 0,14.885 0,12.25 C0,9.615 2.343,7 5.25,7 C6.733,7 8.048,7.667 9.22,8.56 C10.187,9.295 11.113,10.227 12,11.16 Z M5.25,8.5 C3.218,8.5 1.5,10.395 1.5,12.25 C1.5,14.105 3.218,16 5.25,16 C6.267,16 7.264,15.543 8.312,14.747 C9.202,14.069 10.07,13.193 10.967,12.25 C10.07,11.307 9.202,10.43 8.312,9.753 C7.264,8.957 6.267,8.5 5.25,8.5 Z M13.033,12.25 C13.93,13.193 14.798,14.07 15.688,14.747 C16.736,15.543 17.733,16 18.75,16 C20.782,16 22.5,14.105 22.5,12.25 C22.5,10.395 20.782,8.5 18.75,8.5 C17.733,8.5 16.736,8.957 15.688,9.753 C14.798,10.431 13.93,11.307 13.033,12.25 Z"/>
</svg>
